X: 1
T: The Oak Tree
R: reel
M: 4/4
L: 1/8
K: Dmaj
(3FED AD FDAD|FAAF GFEC |~A,3B, CA, (3A,A,A, | A,G,A,B, CDEG|
(3FED AD FDAD | FAAF GFEA | ~B2eg fgec |1 dcce dBAG :|2 (3ded ce dfeg|
|: fB (3BBB fa^ge | fece ~f3e | cAAc eA (3AAA | A^GAB cdeg |
fB (3BBB fa^ge | fece (3f^ga ec | ABce ~a3e |1faec dfeg :|2 faec ~B3c|
|: d2fd Adfd | c2ec Acec | d2fd Adfg | gfed cABc |
d2fd Adfd | c2ec Acec | dfaf gfed |1 B2ec dcBc :|2 B2ec dBAG || [F8A8] ||


Tune 212	Setting 12883

